X:160
T:AIR XXXVII. Rock and a wi Pickle-Tow.
O:england
B:Joseph Mitchell: "The Highland Fair" (1731)
N:The repeat isn't marked but the words require it.
M:6/8
L:1/8
K:Eb
B,|(B,/C/E)F G2B|(c/d/e)G F2G |E>FE G2F|GEE      E2 :|
e | cce      cce| cce     c>BA|BBc  BBc|B(c/d/)e B>AG|
A2B      c2B |c/d/eG  F2G |E>FE G2F|GEE      E2 ||


